icons/monitor-download.svg

<svg width="24" height="24" viewBox="0 0 24 24" fill="none" xmlns="http://www.w3.org/2000/svg">
<path fill-rule="evenodd" clip-rule="evenodd" d="M11.25 21V17H12.75V21H11.25Z" fill="black"/>
<path fill-rule="evenodd" clip-rule="evenodd" d="M7 3.75C5.21421 3.75 3.75 5.21421 3.75 7V13C3.75 14.7858 5.21421 16.25 7 16.25H17C18.7858 16.25 20.25 14.7858 20.25 13V7C20.25 6.58579 20.5858 6.25 21 6.25C21.4142 6.25 21.75 6.58579 21.75 7V13C21.75 15.6142 19.6142 17.75 17 17.75H7C4.38579 17.75 2.25 15.6142 2.25 13V7C2.25 4.38579 4.38579 2.25 7 2.25C7.41421 2.25 7.75 2.58579 7.75 3C7.75 3.41421 7.41421 3.75 7 3.75ZM13 2.25C13.4142 2.25 13.75 2.58579 13.75 3V7.98932L15.2696 6.46967C15.5625 6.17678 16.0374 6.17678 16.3303 6.46967C16.6232 6.76256 16.6232 7.23744 16.3303 7.53033L13.8303 10.0303C13.7408 10.1198 13.6421 10.193 13.5374 10.25H17C17.4142 10.25 17.75 10.5858 17.75 11C17.75 11.4142 17.4142 11.75 17 11.75H9C8.58579 11.75 8.25 11.4142 8.25 11C8.25 10.5858 8.58579 10.25 9 10.25H12.3625C12.2579 10.193 12.1591 10.1198 12.0696 10.0303L9.56965 7.53033C9.27675 7.23744 9.27675 6.76256 9.56965 6.46967C9.86254 6.17678 10.3374 6.17678 10.6303 6.46967L12.25 8.08936V3C12.25 2.58579 12.5858 2.25 13 2.25ZM7.5 20.25C7.08579 20.25 6.75 20.5858 6.75 21C6.75 21.4142 7.08579 21.75 7.5 21.75H16.5C16.9142 21.75 17.25 21.4142 17.25 21C17.25 20.5858 16.9142 20.25 16.5 20.25H7.5Z" fill="black"/>
</svg>

<svg xmlns="http://www.w3.org/2000/svg" fill="none" viewBox="0 0 24 24">
  <path fill="#000" fill-rule="evenodd" d="M11.25 21v-4h1.5v4h-1.5Z" clip-rule="evenodd"/>
  <path fill="#000" fill-rule="evenodd" d="M7 3.75A3.262 3.262 0 0 0 3.75 7v6A3.262 3.262 0 0 0 7 16.25h10A3.262 3.262 0 0 0 20.25 13V7a.75.75 0 0 1 1.5 0v6A4.762 4.762 0 0 1 17 17.75H7A4.762 4.762 0 0 1 2.25 13V7A4.762 4.762 0 0 1 7 2.25a.75.75 0 0 1 0 1.5Zm6-1.5a.75.75 0 0 1 .75.75v4.99l1.52-1.52a.75.75 0 0 1 1.06 1.06l-2.5 2.5a1.27 1.27 0 0 1-.293.22H17a.75.75 0 0 1 0 1.5H9a.75.75 0 0 1 0-1.5h3.363a1.28 1.28 0 0 1-.293-.22l-2.5-2.5a.75.75 0 1 1 1.06-1.06l1.62 1.62V3a.75.75 0 0 1 .75-.75Zm-5.5 18a.75.75 0 0 0 0 1.5h9a.75.75 0 0 0 0-1.5h-9Z" clip-rule="evenodd"/>
</svg>
